StartMenu/Project_exercises/Snapp/Public/Images/AppContainer/pickup.svg

<svg width="44" height="44" viewBox="0 0 44 44" fill="none" xmlns="http://www.w3.org/2000/svg">
<rect x="0.00012207" width="44" height="44" rx="10" fill="url(#paint0_linear_0_722)"/>
<g clip-path="url(#clip0_0_722)">
<path fill-rule="evenodd" clip-rule="evenodd" d="M11.4476 25.9928C13.2549 25.9928 14.72 27.4495 14.72 29.2463C14.72 31.0431 13.2549 32.4998 11.4476 32.4998C9.64028 32.4998 8.17518 31.0431 8.17518 29.2463C8.17518 27.4495 9.64028 25.9928 11.4476 25.9928ZM32.8923 25.8152C34.6996 25.8152 36.1647 27.2719 36.1647 29.0687C36.1647 30.8655 34.6996 32.3222 32.8923 32.3222C31.085 32.3222 29.6199 30.8655 29.6199 29.0687C29.6199 27.2719 31.085 25.8152 32.8923 25.8152ZM19.7079 19.9369C20.4308 19.9369 21.0168 20.5229 21.0168 21.2458V27.1091C21.0168 27.832 20.4308 28.418 19.7079 28.418L16.3473 28.4179C16.0272 26.0303 13.9709 24.1885 11.4819 24.1885C8.99295 24.1885 6.93664 26.0303 6.61661 28.4179L5.30933 28.418C4.58641 28.418 4.00037 27.832 4.00037 27.1091V21.2458C4.00037 20.5229 4.58641 19.9369 5.30933 19.9369H19.7079ZM28.9886 11.5C29.7784 11.5 30.4842 11.9721 30.7917 12.6861L30.8601 12.8696L32.8621 19.1786C32.9915 19.5863 33.3101 19.9011 33.7103 20.0293L33.8866 20.0725L38.9142 20.9426C39.4846 21.0413 39.9152 21.5002 39.9888 22.0613L40 22.2324V27.7192C40 28.0405 39.7684 28.3078 39.4631 28.3632L39.3455 28.3737L37.7587 28.3729C37.419 26.0072 35.3729 24.1885 32.8996 24.1885C30.4263 24.1885 28.3802 26.0072 28.0405 28.3729L25.0386 28.3737C24.022 28.3737 23.1858 27.6011 23.0853 26.611L23.0751 26.4103V13.4634C23.0751 12.4468 23.8478 11.6107 24.8378 11.5101L25.0386 11.5H28.9886ZM28.3055 14.1028H26.172C25.8507 14.1028 25.5835 14.3343 25.5281 14.6396L25.5175 14.7573V19.0415C25.5175 19.3628 25.7491 19.63 26.0544 19.6854L26.172 19.696H29.6622C29.7292 19.696 29.7959 19.6857 29.8598 19.6655C30.1661 19.5685 30.3509 19.2671 30.3116 18.9593L30.2861 18.8439L28.9295 14.5597C28.8433 14.2876 28.5909 14.1028 28.3055 14.1028Z" fill="url(#paint1_linear_0_722)"/>
</g>
<defs>
<linearGradient id="paint0_linear_0_722" x1="22.0001" y1="0" x2="22.0001" y2="44" gradientUnits="userSpaceOnUse">
<stop stop-color="#00FF89"/>
<stop offset="1" stop-color="#00B964"/>
</linearGradient>
<linearGradient id="paint1_linear_0_722" x1="22.0002" y1="11.5" x2="22.0002" y2="32.4998" gradientUnits="userSpaceOnUse">
<stop offset="0.642919" stop-color="white"/>
<stop offset="1" stop-color="#6EF7B7"/>
</linearGradient>
<clipPath id="clip0_0_722">
<rect width="36" height="36" fill="white" transform="translate(4.00012 4)"/>
</clipPath>
</defs>
</svg>

<?xml version="1.0" encoding="utf-8"?>
<!-- Generator: Adobe Illustrator 27.4.1, SVG Export Plug-In . SVG Version: 6.00 Build 0)  -->
<svg version="1.1" id="Layer_1" xmlns="http://www.w3.org/2000/svg" xmlns:xlink="http://www.w3.org/1999/xlink" x="0px" y="0px"
	 viewBox="0 0 44 44" style="enable-background:new 0 0 44 44;" xml:space="preserve">
<style type="text/css">
	.st0{fill:url(#SVGID_1_);}
	.st1{fill-rule:evenodd;clip-rule:evenodd;fill:url(#SVGID_00000160872883556955171070000011045209537785602184_);}
</style>
<linearGradient id="SVGID_1_" gradientUnits="userSpaceOnUse" x1="22.0001" y1="46.3937" x2="22.0001" y2="2.3937" gradientTransform="matrix(1 0 0 -1 0 46.3937)">
	<stop  offset="0" style="stop-color:#00FF89"/>
	<stop  offset="1" style="stop-color:#00B964"/>
</linearGradient>
<path class="st0" d="M10,0h24c5.5,0,10,4.5,10,10v24c0,5.5-4.5,10-10,10H10C4.5,44,0,39.5,0,34V10C0,4.5,4.5,0,10,0z"/>
<g>
	<g>
		
			<linearGradient id="SVGID_00000130606249051769958920000011341706928878826159_" gradientUnits="userSpaceOnUse" x1="22.0002" y1="34.8937" x2="22.0002" y2="13.8939" gradientTransform="matrix(1 0 0 -1 0 46.3937)">
			<stop  offset="0.6429" style="stop-color:#FFFFFF"/>
			<stop  offset="1" style="stop-color:#6EF7B7"/>
		</linearGradient>
		<path style="fill-rule:evenodd;clip-rule:evenodd;fill:url(#SVGID_00000130606249051769958920000011341706928878826159_);" d="
			M11.4,26c1.8,0,3.3,1.5,3.3,3.3s-1.5,3.3-3.3,3.3c-1.8,0-3.3-1.5-3.3-3.3S9.6,26,11.4,26z M32.9,25.8c1.8,0,3.3,1.5,3.3,3.3
			c0,1.8-1.5,3.3-3.3,3.3s-3.3-1.5-3.3-3.3C29.6,27.3,31.1,25.8,32.9,25.8z M19.7,19.9c0.7,0,1.3,0.6,1.3,1.3v5.9
			c0,0.7-0.6,1.3-1.3,1.3l-3.4,0C16,26,14,24.2,11.5,24.2c-2.5,0-4.5,1.8-4.9,4.2l-1.3,0c-0.7,0-1.3-0.6-1.3-1.3v-5.9
			c0-0.7,0.6-1.3,1.3-1.3H19.7z M29,11.5c0.8,0,1.5,0.5,1.8,1.2l0.1,0.2l2,6.3c0.1,0.4,0.4,0.7,0.8,0.9l0.2,0l5,0.9
			c0.6,0.1,1,0.6,1.1,1.1l0,0.2v5.5c0,0.3-0.2,0.6-0.5,0.6l-0.1,0l-1.6,0c-0.3-2.4-2.4-4.2-4.9-4.2c-2.5,0-4.5,1.8-4.9,4.2l-3,0
			c-1,0-1.9-0.8-2-1.8l0-0.2V13.5c0-1,0.8-1.9,1.8-2l0.2,0H29z M28.3,14.1h-2.1c-0.3,0-0.6,0.2-0.6,0.5l0,0.1V19
			c0,0.3,0.2,0.6,0.5,0.6l0.1,0h3.5c0.1,0,0.1,0,0.2,0c0.3-0.1,0.5-0.4,0.5-0.7l0-0.1l-1.4-4.3C28.8,14.3,28.6,14.1,28.3,14.1z"/>
	</g>
</g>
</svg>
